icon_installer/data/icons/scalable/actions/show-keyboard2-symbolic.svg

<?xml version="1.0" encoding="UTF-8"?>
<svg height="16px" viewBox="0 0 16 16" width="16px" xmlns="http://www.w3.org/2000/svg">
    <path d="m 1.980469 2 c -0.554688 0 -1 0.445312 -1 1 v 11 c 0 0.554688 0.445312 1 1 1 h 13.003906 c 0.554687 0 1 -0.445312 1 -1 v -11 c 0 -0.554688 -0.445313 -1 -1 -1 z m 1.363281 2 h 1.65625 v 2 h -2 v -1.605469 c 0 -0.21875 0.152344 -0.394531 0.34375 -0.394531 z m 2.65625 0 h 2 v 2 h -2 z m 3 0 h 2 v 2 h -2 z m 3 0 h 1.65625 c 0.191406 0 0.34375 0.175781 0.34375 0.394531 v 1.605469 h -2 z m -8 3 h 2 v 2 h -2 z m 3 0 h 2 v 2 h -2 z m 3 0 h 2 v 2 h -2 z m -6.65625 4 h 10.3125 c 0.191406 0 0.34375 0.175781 0.34375 0.394531 v 1.210938 c 0 0.21875 -0.152344 0.394531 -0.34375 0.394531 h -10.3125 c -0.191406 0 -0.34375 -0.175781 -0.34375 -0.394531 v -1.210938 c 0 -0.21875 0.152344 -0.394531 0.34375 -0.394531 z m 0 0" fill="#222222"/>
</svg>

<svg xmlns="http://www.w3.org/2000/svg" width="16" height="16"><path fill="#222" d="M1.98 2c-.554 0-1 .445-1 1v11c0 .555.446 1 1 1h13.004c.555 0 1-.445 1-1V3c0-.555-.445-1-1-1zm1.364 2H5v2H3V4.395c0-.22.152-.395.344-.395zM6 4h2v2H6zm3 0h2v2H9zm3 0h1.656c.192 0 .344.176.344.395V6h-2zM4 7h2v2H4zm3 0h2v2H7zm3 0h2v2h-2zm-6.656 4h10.312c.192 0 .344.176.344.395v1.21c0 .22-.152.395-.344.395H3.344C3.152 13 3 12.824 3 12.605v-1.21c0-.22.152-.395.344-.395zm0 0"/></svg>
